X:1
T:HARK! THE HERALD ANGELS SING
T:HARK! THE HERALD ANGELS SING
T:NEW TUNE
T:Merle Lamprecht
T:Charles Wesley 1707-1788
C:Merle Lamprecht
Z:Charles Wesley 1707-1788
%%score { 1 | 2 }
L:1/8
M:4/4
K:C
V:1 treble nm="Piano" snm="Pno."
V:2 bass 
V:1
 [EGc]2 [G,CE]2 [CEG]2 [E,G,C]2 | [EGc][DGB][CFA][CEG] [B,DG]2 [E,G,C]2 | %2
w: Hark the he- rald|an _ gels _ sing, _|
w: Christ, by high- est|hea _ ven a- dored, _|
w: Hail, the heav'n born|Prince _ of _ Peace! _|
 [A,CF]2 [CFA]2 [CEG]2 [E,G,C]2 | [CFA]2 [DFGB]2 [EGc]4 | [GBd]2 [GBd]2 [^FAd]c[DGB][DFA] | %5
w: Glo- ry to the|new- born King:|peace on earth _ and _|
w: Christ, the e- ver-|las- ting Lord.|late in time _ be _|
w: Hail the Sun of|Right- eous- ness!|Light and life _ to _|
 [DGB]2 [GBd]2 [B,DG]4 | [D^FA]2 [^F,A,D]2 [FAd]2 [A,DF]2 | [B,DG][D^FA][DGB][EGA^c] [FAd]4 | %8
w: mer- cy mild,|God and sin ners|re _ con _ ciled!|
w: hold him come,|off- spring of the|Vir _ gin's _ womb:|
w: all he brings,|ris'n with heal- ing|in _ his _ wings.|
 [GBd]2 [B,DG]2 [DGB]2 [G,B,D]2 | [^FAd]c[DGB][CFA] [DGB]4 | [DGB]2 [GBd]2 [B,DG]2 [DGB]2 | %11
w: Joy- ful all ye|na _ tions _ rise,|join the tri- umph|
w: veiled in flesh the|God _ head _ see;|hail thín- car- nate|
w: Mild he lays his|glo _ ry _ by,|born that we no|
 [Gce][^FAd][EA^c][EAc] [FAd]4 | [Ace]2 [^FAc]2 [CFA]2 [CFA]2 | [^FAd]c[DGB][CDFA] [DGB]4 | %14
w: of _ the _ skies;|with thán- ge- lic|hosts _ pro _ claim,|
w: De _ i _ ty,|pleased with us in|flesh _ to _ dwell,|
w: more _ may _ die,|born to raise us|from _ the _ earth,|
 [CEG]2 [EGc]2 [G,CE]2 [CEG]2 | [B,DG]F[G,CE][F,G,B,D] [G,CE]4 | %16
w: Christ is born in|Beth _ le _ hem!|
w: Je- sus, our Im-|ma _ nu _ el.|
w: born to give us|se _ cond _ birth.|
 [EGc][DGB][CFA][B,DG] [Gce]2 [Gce]2 | [^FAd]c[DGB][DFA] [GBd]4 | %18
w: Hark! _ the _ he- rald|an _ gels _ sing,|
w: Hark! _ the _ he- rald|an _ gels _ sing,|
w: Hark! _ the _ he- rald|an _ gels _ sing,|
 [GBdf][Gce][FGBd][EGc] [FAc]2 [A,CF]2 | [A,CF]2 [_B,CE]2 [A,CF]4 :| %20
w: Glo _ ry _ to the|new- born King!|
w: Glo _ ry _ to the|new- born King!|
w: Glo _ ry _ to the|new- born King!|
V:2
 [C,,C,]8 | [C,,,C,,][G,,,G,,][F,,,F,,][C,,C,] [B,,,B,,]2 [C,,C,]2 | [F,,,F,,]4 [C,,C,]4 | %3
 [F,,,F,,]2 [G,,,G,,]2 [C,,,C,,]4 | [G,,,G,,]4 [D,,D,]2 [G,,G,][^F,,^F,] | [G,,G,]8 | [D,,D,]8 | %7
 [G,,,G,,][^F,,,^F,,][G,,,G,,][A,,,A,,] [D,,,D,,]4 | [G,,,G,,]8 | %9
 [D,,,D,,]2 [G,,,G,,][^F,,,^F,,] [G,,,G,,]4 | [G,,G,]8 | [C,,C,][D,,D,] [A,,A,]2 [D,,D,]4 | %12
 [^F,,,^F,,]8 | [D,,D,]2 [G,,G,][^F,,^F,] [G,,G,]4 | [C,,C,]8 | %15
 [G,,,G,,]2 [C,,C,][B,,,B,,] [C,,C,]4 | [C,,,C,,][G,,,G,,][A,,,A,,][B,,,B,,] [C,,,C,,]4 | %17
 [D,,,D,,]2 [G,,,G,,][D,,D,] [G,,,G,,]4 | [G,,,G,,][C,,C,][G,,,G,,][C,,C,] [F,,,F,,]4 | %19
 [F,,F,]2 [C,,C,]2 [F,,,F,,]4 :| %20

